packages/ui-icons/svg/Solid/progress.svg

<svg viewBox="0 0 1920 1920" version="1.1" xmlns="http://www.w3.org/2000/svg">
    <path d="M320.0064,962.031999 C320.0064,1314.89788 607.057882,1602.0064 960.032001,1602.0064 C1133.79895,1602.0064 1294.12537,1532.24919 1411.97008,1413.93392 L1411.97008,1413.93392 L1200.0416,1202.0224 L1680.0608,1202.0224 L1680.0608,1682.0032 L1525.0146,1526.8894 C1377.64871,1674.88348 1177.24069,1762 960.032001,1762 C518.814353,1762 160,1403.13435 160,962.031999 L160,962.031999 Z M959.967999,162 C1401.18565,162 1760,520.865645 1760,961.968001 L1760,961.968001 L1599.9936,961.968001 C1599.9936,609.102116 1312.94212,321.9936 959.967999,321.9936 C786.201048,321.9936 625.874635,391.75081 508.029921,510.066077 L508.029921,510.066077 L719.958398,721.977601 L239.939198,721.977601 L239.939198,241.9968 L394.985399,397.030599 C542.351294,249.116515 742.75931,162 959.967999,162 Z" stroke="none" stroke-width="1" fill-rule="evenodd"/>
</svg>

<svg viewBox="0 0 1920 1920" xmlns="http://www.w3.org/2000/svg">
    <path d="M320.006 962.032c0 352.866 287.052 639.974 640.026 639.974 173.767 0 334.093-69.757 451.938-188.072l-211.928-211.912h480.019v479.981l-155.046-155.114C1377.649 1674.883 1177.24 1762 960.032 1762 518.814 1762 160 1403.134 160 962.032ZM959.968 162C1401.186 162 1760 520.866 1760 961.968h-160.006c0-352.866-287.052-639.974-640.026-639.974-173.767 0-334.093 69.757-451.938 188.072l211.928 211.912H239.94V241.997L394.985 397.03C542.351 249.117 742.76 162 959.968 162Z" fill-rule="evenodd"/>
</svg>
